src/assets/icons/telegram.svg

<svg width="17" height="16" viewBox="0 0 17 16" fill="none" xmlns="http://www.w3.org/2000/svg">
<g clip-path="url(#clip0_508_421)">
<path fill-rule="evenodd" clip-rule="evenodd" d="M14.8427 1.42676C15.0394 1.34396 15.2547 1.31541 15.4662 1.34406C15.6777 1.37272 15.8777 1.45754 16.0453 1.58971C16.2129 1.72187 16.342 1.89653 16.4192 2.09553C16.4964 2.29452 16.5188 2.51056 16.4842 2.72117L14.6787 13.6727C14.5035 14.7291 13.3445 15.3349 12.3757 14.8087C11.5653 14.3684 10.3616 13.6902 9.27895 12.9825C8.73763 12.6282 7.07942 11.4938 7.28321 10.6866C7.45834 9.99644 10.2446 7.40285 11.8367 5.86086C12.4616 5.25506 12.1766 4.90558 11.4387 5.46283C9.60534 6.8464 6.66387 8.9504 5.69107 9.54268C4.83291 10.0649 4.38552 10.1541 3.85056 10.0649C2.87458 9.9025 1.96945 9.65095 1.2307 9.34446C0.232432 8.9305 0.280992 7.55808 1.22991 7.15845L14.8427 1.42676Z" fill="#9EA8DD"/>
</g>
<defs>
<clipPath id="clip0_508_421">
<rect width="16" height="16" fill="white" transform="translate(0.5)"/>
</clipPath>
</defs>
</svg>

<svg width="17" height="16" fill="none" xmlns="http://www.w3.org/2000/svg">
  <g clip-path="url(#a)">
    <path fill-rule="evenodd" clip-rule="evenodd" d="M14.84 1.43a1.2 1.2 0 0 1 1.64 1.3l-1.8 10.94a1.57 1.57 0 0 1-2.3 1.14 46.55 46.55 0 0 1-3.1-1.83c-.54-.35-2.2-1.49-2-2.3.18-.68 2.96-3.28 4.56-4.82.62-.6.34-.95-.4-.4a110.86 110.86 0 0 1-5.75 4.08c-.86.52-1.3.61-1.84.52a12.2 12.2 0 0 1-2.62-.72c-1-.4-.95-1.78 0-2.18l13.61-5.73Z" fill="#9EA8DD"/>
  </g>
  <defs>
    <clipPath id="a">
      <path fill="#fff" transform="translate(.5)" d="M0 0h16v16H0z"/>
    </clipPath>
  </defs>
</svg>
